X:1
T:Title
%%score { ( 1 4 ) | ( 2 3 ) }
L:1/8
M:4/4
K:Ab
V:1 treble nm="Grand Piano"
V:4 treble 
V:2 bass 
V:3 bass 
V:1
 z4 z2[Q:1/4=100] [CE]2 | [DF]2 [EA]2 [Ed]2 [Ec]2 | [Ec]3 [DB] [CA]4 | [DF]2 [FA]2 G2 B2 | %4
 B4 A2 [A,CE]2 | [A,DF]2 [A,EA]2 [Ed]2 [Ec]2 | [=Ec]3 [CGB] [CFA]2 .[CEG]2 | z2 F2 z4 | %8
[M:3/4] [CEA]6 |[M:1/4] [A,CA]2 |[M:4/4] B3 A G2 E2 | z4 z2 B2[K:bass] | z4 z2 [FB]2 | A4 G2 E2 | %14
 [Ec]2 [EA]2 [FB][FA][EG][DF] |[M:9/8] [CE]2 [EA] B c2- c c2 |[M:4/4] [Fd]3 [B,FB] [CEA]2 [DEG]2 | %17
[M:3/4] [CEA]6 |] %18
V:2
 z4 z2 [A,,A,]2 | [D,A,]2 [C,A,]2 [B,,G,]2 [A,,A,]2 | [E,A,]3 [E,G,] [A,,A,]4 | %3
 [D,A,]2 [B,,B,]2 [E,B,E]2 [G,DE]2 | D4 z4 | D,2 C,2 [B,,G,]2 [A,,A,]2 | [C,G,]3 =E, F,2 z B, | %7
 D,2 z D E,2 z D |[M:3/4] A,,6 |[M:1/4] A,,2 |[M:4/4] [E,G,E]3 [E,CE] [E,B,E]2 [E,G,]2 | %11
 [E,B,E]3 [E,A,E] [E,G,E]2 .[E,G,E]2 | [C,A,]3 [B,,G,] [A,,A,]2 .[D,A,]2 | [E,E]6 z2 | %14
 [A,,A,]2 [C,A,]2 [D,A,][D,A,][D,A,][D,A,] | %15
[M:9/8] [A,,A,]2 [C,A,] [E,G,E] [A,E]2- [A,E] [F,=A,F]2 |[M:4/4] [B,,B,]3 D, E,2 E,2 | %17
[M:3/4] A,,6 |] %18
V:3
 x8 | x8 | x8 | x8 | [A,E]4- [A,CE]2 A,,2 | x8 | z4 z2 C,2 | z2 B,,2 z2 E,2 |[M:3/4] x6 | %9
[M:1/4] x2 |[M:4/4] x8 | x8 | x8 | C4 B,2 [E,G,]2 | x8 |[M:9/8] x9 |[M:4/4] x8 |[M:3/4] x6 |] %18
V:4
 x8 | x8 | x8 | x8 | x8 | x8 | x8 | [A,F]2 [Ec]B [CEA]2 .[B,EG]2 |[M:3/4] x6 |[M:1/4] x2 | %10
[M:4/4] x8 | d3 c B2 z[K:bass] D, | [Ee]3 [Ed] [Ec]2 z B, | x8 | x8 |[M:9/8] x9 |[M:4/4] x8 | %17
[M:3/4] x6 |] %18

